dist/images/svg/instagram.svg

<svg width="29" height="28" viewBox="0 0 29 28" fill="none" xmlns="http://www.w3.org/2000/svg">
<path d="M21.2423 1.12C22.8193 1.12148 24.3313 1.74146 25.4464 2.84385C26.5615 3.94624 27.1887 5.44098 27.1902 7V21C27.1887 22.559 26.5615 24.0538 25.4464 25.1561C24.3313 26.2585 22.8193 26.8785 21.2423 26.88H7.08077C5.50376 26.8785 3.99178 26.2585 2.87666 25.1561C1.76155 24.0538 1.13442 22.559 1.13292 21V7C1.13442 5.44098 1.76155 3.94624 2.87666 2.84385C3.99178 1.74146 5.50376 1.12148 7.08077 1.12H21.2423ZM21.2423 0H7.08077C5.20283 0 3.40181 0.737498 2.07391 2.05025C0.746007 3.36301 0 5.14348 0 7V21C0 21.9193 0.183149 22.8295 0.538991 23.6788C0.894833 24.5281 1.4164 25.2997 2.07391 25.9497C3.40181 27.2625 5.20283 28 7.08077 28H21.2423C22.1722 28 23.0929 27.8189 23.952 27.4672C24.8111 27.1154 25.5917 26.5998 26.2492 25.9497C26.9067 25.2997 27.4282 24.5281 27.7841 23.6788C28.1399 22.8295 28.3231 21.9193 28.3231 21V7C28.3231 6.08075 28.1399 5.1705 27.7841 4.32122C27.4282 3.47194 26.9067 2.70026 26.2492 2.05025C25.5917 1.40024 24.8111 0.884626 23.952 0.532843C23.0929 0.18106 22.1722 0 21.2423 0Z" fill="#222222"/>
<path d="M14.1613 8.40003C15.2817 8.40003 16.3769 8.72846 17.3084 9.3438C18.2399 9.95914 18.966 10.8337 19.3947 11.857C19.8235 12.8803 19.9357 14.0062 19.7171 15.0925C19.4985 16.1788 18.959 17.1767 18.1668 17.9598C17.3746 18.743 16.3653 19.2763 15.2664 19.4924C14.1676 19.7085 13.0286 19.5976 11.9936 19.1738C10.9585 18.7499 10.0738 18.0321 9.45136 17.1112C8.82892 16.1903 8.4967 15.1076 8.4967 14C8.4967 12.5148 9.0935 11.0904 10.1558 10.0402C11.2181 8.99003 12.659 8.40003 14.1613 8.40003ZM14.1613 7.28003C12.8169 7.28003 11.5026 7.67415 10.3848 8.41255C9.26695 9.15096 8.39569 10.2005 7.8812 11.4284C7.36671 12.6563 7.2321 14.0075 7.49439 15.311C7.75667 16.6146 8.40407 17.812 9.35473 18.7518C10.3054 19.6916 11.5166 20.3316 12.8352 20.5909C14.1538 20.8502 15.5205 20.7171 16.7626 20.2085C18.0047 19.6999 19.0663 18.8386 19.8133 17.7335C20.5602 16.6284 20.9588 15.3291 20.9588 14C20.9588 12.2178 20.2427 10.5085 18.9679 9.24827C17.6931 7.98803 15.9641 7.28003 14.1613 7.28003Z" fill="#222222"/>
<path d="M22.092 4.47999C22.3161 4.47999 22.5351 4.54567 22.7214 4.66874C22.9077 4.79181 23.053 4.96673 23.1387 5.17138C23.2245 5.37603 23.2469 5.60123 23.2032 5.81849C23.1595 6.03575 23.0516 6.23531 22.8931 6.39194C22.7347 6.54858 22.5328 6.65525 22.313 6.69846C22.0933 6.74168 21.8655 6.7195 21.6585 6.63473C21.4515 6.54996 21.2745 6.40641 21.15 6.22222C21.0255 6.03804 20.9591 5.8215 20.9591 5.59999C20.9591 5.30294 21.0785 5.01807 21.2909 4.80803C21.5034 4.59799 21.7916 4.47999 22.092 4.47999ZM22.092 3.35999C21.6439 3.35999 21.2058 3.49136 20.8332 3.73749C20.4606 3.98363 20.1701 4.33347 19.9987 4.74277C19.8272 5.15208 19.7823 5.60247 19.8697 6.03699C19.9571 6.47151 20.1729 6.87063 20.4898 7.1839C20.8067 7.49717 21.2104 7.71051 21.65 7.79694C22.0895 7.88338 22.5451 7.83902 22.9591 7.66948C23.3732 7.49994 23.727 7.21283 23.976 6.84446C24.225 6.4761 24.3579 6.04302 24.3579 5.59999C24.3579 5.0059 24.1191 4.43615 23.6942 4.01607C23.2693 3.59598 22.693 3.35999 22.092 3.35999Z" fill="#222222"/>
</svg>

<svg width="29" height="28" fill="none" xmlns="http://www.w3.org/2000/svg"><path d="M21.242 1.12a5.988 5.988 0 0 1 4.204 1.724A5.852 5.852 0 0 1 27.19 7v14a5.852 5.852 0 0 1-1.744 4.156 5.989 5.989 0 0 1-4.204 1.724H7.081a5.989 5.989 0 0 1-4.204-1.724A5.852 5.852 0 0 1 1.133 21V7a5.852 5.852 0 0 1 1.744-4.156A5.988 5.988 0 0 1 7.08 1.12h14.161zm0-1.12H7.081a7.122 7.122 0 0 0-5.007 2.05A6.96 6.96 0 0 0 0 7v14c0 .92.183 1.83.539 2.679.356.85.877 1.62 1.535 2.27A7.122 7.122 0 0 0 7.08 28h14.161c.93 0 1.85-.181 2.71-.533a7.086 7.086 0 0 0 2.297-1.517 6.996 6.996 0 0 0 1.535-2.271c.356-.85.54-1.76.54-2.679V7c0-.92-.184-1.83-.54-2.679a6.996 6.996 0 0 0-1.535-2.27A7.087 7.087 0 0 0 23.952.532 7.152 7.152 0 0 0 21.242 0z" fill="#222"/><path d="M14.161 8.4c1.12 0 2.216.328 3.147.944a5.614 5.614 0 0 1 2.087 2.513 5.54 5.54 0 0 1 .322 3.236 5.58 5.58 0 0 1-1.55 2.867 5.685 5.685 0 0 1-2.9 1.532 5.725 5.725 0 0 1-3.273-.318A5.652 5.652 0 0 1 9.45 17.11 5.555 5.555 0 0 1 8.497 14a5.57 5.57 0 0 1 1.659-3.96A5.698 5.698 0 0 1 14.16 8.4zm0-1.12a6.853 6.853 0 0 0-3.776 1.133 6.737 6.737 0 0 0-2.504 3.015 6.649 6.649 0 0 0-.387 3.883 6.696 6.696 0 0 0 1.86 3.44 6.833 6.833 0 0 0 3.481 1.84 6.87 6.87 0 0 0 3.928-.383 6.782 6.782 0 0 0 3.05-2.474A6.666 6.666 0 0 0 20.96 14a6.681 6.681 0 0 0-1.991-4.752A6.838 6.838 0 0 0 14.16 7.28zm7.931-2.8c.224 0 .443.066.63.189a1.108 1.108 0 0 1 .172 1.723 1.137 1.137 0 0 1-1.235.243 1.13 1.13 0 0 1-.509-.413 1.11 1.11 0 0 1 .14-1.414c.213-.21.502-.328.802-.328zm0-1.12c-.448 0-.886.131-1.259.377A2.245 2.245 0 0 0 20 4.743a2.217 2.217 0 0 0 .49 2.44 2.29 2.29 0 0 0 2.47.486 2.26 2.26 0 0 0 1.017-.825 2.222 2.222 0 0 0-.282-2.828 2.279 2.279 0 0 0-1.602-.656z" fill="#222"/></svg>
